img/price/decor-3.svg

<svg width="1024" height="1578" fill="none" xmlns="http://www.w3.org/2000/svg"><path opacity=".2" d="M-430.749 562.776C-577.6 778.835-261.973 927.99-151.811 762.116c225.228-339.133-40.43-385.146 192.134-605.2C200.285 5.559 196.23-127.852 309.543 231.041 402.888 526.69-28.675 837.359-69.121 894.4c-171.552 241.93 258.663 487.29 563.06 67.85 304.396-419.444 375.225-513.686 508.071-234.054 132.85 279.634-486.832 426.324-551.178 616.494-74.727 220.84 442.234-125.01 547.624-197.27 12.394-8.5 26.144-14.14 41.094-15.65 71.24-7.23 272.87-12.5 34.16 199.9-125.262 111.46-311.437 206.29-240.615 244.33" stroke="#4A4A4A" stroke-width="3" stroke-linecap="round" stroke-dasharray="10 10"/></svg>

<svg width="1024" height="1578" viewBox="0 0 1024 1578" fill="none" xmlns="http://www.w3.org/2000/svg">
<path opacity="0.2" d="M-430.749 562.776C-577.6 778.835 -261.973 927.99 -151.811 762.116C73.417 422.983 -192.241 376.97 40.3234 156.916C200.285 5.55913 196.23 -127.852 309.543 231.041C402.888 526.69 -28.6746 837.359 -69.1208 894.4C-240.673 1136.33 189.542 1381.69 493.939 962.25C798.335 542.806 869.164 448.564 1002.01 728.196C1134.86 1007.83 515.178 1154.52 450.832 1344.69C376.105 1565.53 893.066 1219.68 998.456 1147.42C1010.85 1138.92 1024.6 1133.28 1039.55 1131.77C1110.79 1124.54 1312.42 1119.27 1073.71 1331.67C948.448 1443.13 762.273 1537.96 833.095 1576" stroke="#4A4A4A" stroke-width="3" stroke-linecap="round" stroke-dasharray="10 10"/>
</svg>
